assets/Google Play batch.svg

<svg width="109" height="32" viewBox="0 0 109 32" fill="none" xmlns="http://www.w3.org/2000/svg">
<path d="M105.074 31.5H4.75039C2.94292 31.5 1.46912 30.0224 1.46912 28.2136V3.7808C1.46912 1.97225 2.94189 0.5 4.75039 0.5H105.074C106.892 0.5 108.414 1.98233 108.414 3.7808V28.2136C108.414 30.0123 106.891 31.5 105.074 31.5Z" stroke="#253141"/>
<path d="M85.6571 23.9995H87.1348V13.998H85.6571V23.9995ZM98.9677 17.601L97.2737 21.9369H97.223L95.4649 17.601H93.8731L96.5103 23.661L95.0064 27.0322H96.5475L100.611 17.6013L98.9677 17.601ZM90.5865 22.8634C90.1034 22.8634 89.4279 22.6187 89.4279 22.014C89.4279 21.2421 90.269 20.9462 90.9944 20.9462C91.6438 20.9462 91.9503 21.0875 92.3447 21.2806C92.2299 22.2071 91.4403 22.8634 90.5866 22.8634L90.5865 22.8634ZM90.7655 17.3822C89.6956 17.3822 88.5876 17.8585 88.1291 18.9135L89.4406 19.4666C89.7209 18.9135 90.2428 18.7335 90.7909 18.7335C91.5551 18.7335 92.332 19.1963 92.3447 20.0201V20.1229C92.077 19.9685 91.5036 19.737 90.8035 19.737C89.3891 19.737 87.9501 20.5216 87.9501 21.9884C87.9501 23.3265 89.1096 24.1887 90.4084 24.1887C91.4015 24.1887 91.9503 23.7384 92.2932 23.2106H92.3447V23.9831H93.7718V20.1484C93.7718 18.3729 92.4587 17.3822 90.7655 17.3822V17.3822ZM81.6324 18.8185H79.5306V15.3905H81.6324C82.7372 15.3905 83.3644 16.3142 83.3644 17.1044C83.3644 17.8795 82.7372 18.8185 81.6324 18.8185ZM81.5944 13.9982H78.0534V23.9997H79.5306V20.2107H81.5945C83.2323 20.2107 84.8423 19.0132 84.8423 17.1048C84.8423 15.1967 83.2323 13.9986 81.5945 13.9986L81.5944 13.9982ZM62.2858 22.8651C61.2648 22.8651 60.4104 22.0013 60.4104 20.8161C60.4104 19.617 61.2648 18.7411 62.2858 18.7411C63.2937 18.7411 64.0847 19.6171 64.0847 20.8161C64.0847 22.0013 63.2937 22.8651 62.2858 22.8651ZM63.9826 18.1609H63.9315C63.5999 17.7614 62.9617 17.4006 62.1583 17.4006C60.4738 17.4006 58.9301 18.8958 58.9301 20.8161C58.9301 22.7232 60.4738 24.2054 62.1583 24.2054C62.9617 24.2054 63.5999 23.8444 63.9315 23.4323H63.9826V23.9216C63.9826 25.2238 63.2937 25.9194 62.1837 25.9194C61.2781 25.9194 60.7167 25.2622 60.4868 24.7081L59.1984 25.2493C59.5681 26.1511 60.5503 27.26 62.1837 27.26C63.9192 27.26 65.3865 26.2287 65.3865 23.7153V17.6067H63.9827L63.9826 18.1609ZM66.4074 23.9992H67.8867V13.9977H66.4074V23.9992ZM70.0687 20.6999C70.0306 19.3852 71.0772 18.7152 71.8296 18.7152C72.4167 18.7152 72.9138 19.0117 73.0803 19.4367L70.0687 20.6999ZM74.6617 19.5655C74.3811 18.8055 73.5264 17.4006 71.7785 17.4006C70.043 17.4006 68.6014 18.7795 68.6014 20.803C68.6014 22.7105 70.0306 24.2054 71.944 24.2054C73.4877 24.2054 74.3812 23.252 74.7514 22.6976L73.6031 21.9242C73.2202 22.4914 72.6973 22.8651 71.944 22.8651C71.1917 22.8651 70.6555 22.5171 70.3116 21.834L74.8149 19.9524L74.6617 19.5655ZM38.7798 18.4446V19.888H42.199C42.0969 20.6999 41.829 21.2927 41.4207 21.7052C40.9229 22.2076 40.1446 22.762 38.7797 22.762C36.6744 22.762 35.0287 21.048 35.0287 18.9214C35.0287 16.7949 36.6744 15.0806 38.7797 15.0806C39.9153 15.0806 40.7444 15.5318 41.3569 16.1118L42.3651 15.0934C41.51 14.2687 40.3747 13.6372 38.7797 13.6372C35.8958 13.6372 33.4717 16.0087 33.4717 18.9214C33.4717 21.8339 35.8958 24.2054 38.7797 24.2054C40.3361 24.2054 41.5101 23.6898 42.4285 22.7233C43.3727 21.7695 43.6663 20.4292 43.6663 19.3465C43.6663 19.0118 43.6405 18.7024 43.5895 18.4446H38.7798ZM47.5541 22.8651C46.5331 22.8651 45.6527 22.0145 45.6527 20.803C45.6527 19.5786 46.5331 18.7411 47.5541 18.7411C48.5746 18.7411 49.455 19.5786 49.455 20.803C49.455 22.0145 48.5746 22.8651 47.5541 22.8651ZM47.5541 17.4006C45.6908 17.4006 44.1727 18.8311 44.1727 20.803C44.1727 22.762 45.6908 24.2054 47.5541 24.2054C49.4167 24.2054 50.935 22.762 50.935 20.803C50.935 18.8311 49.4167 17.4006 47.5541 17.4006ZM54.9296 22.8651C53.9094 22.8651 53.0287 22.0145 53.0287 20.803C53.0287 19.5786 53.9094 18.7411 54.9296 18.7411C55.9505 18.7411 56.8306 19.5786 56.8306 20.803C56.8306 22.0145 55.9505 22.8651 54.9296 22.8651ZM54.9296 17.4006C53.067 17.4006 51.5489 18.8311 51.5489 20.803C51.5489 22.762 53.067 24.2054 54.9296 24.2054C56.7929 24.2054 58.311 22.762 58.311 20.803C58.311 18.8311 56.7929 17.4006 54.9296 17.4006Z" fill="#253141"/>
<path d="M17.3739 16.1388L8.94287 25.1784C8.94319 25.1803 8.94382 25.1819 8.94412 25.1838C9.20269 26.1654 10.0903 26.8881 11.1436 26.8881C11.5647 26.8881 11.9601 26.7732 12.2991 26.5713L12.326 26.5553L21.8167 21.0233L17.3743 16.1387" fill="#253141"/>
<path d="M26.4981 13.9998L26.4901 13.9943L22.3926 11.5948L17.7764 15.7442L22.4087 20.4229L26.4845 18.0473C27.199 17.6577 27.6841 16.8967 27.6841 16.0192C27.6841 15.148 27.2056 14.3908 26.4981 13.9998Z" fill="#253141"/>
<path d="M8.34771 7.42139C8.29703 7.61018 8.27039 7.80794 8.27039 8.0133V23.9872C8.27039 24.1922 8.29671 24.3906 8.34803 24.5787L17.0701 15.7701L8.34803 7.42162" fill="#253141"/>
<path d="M17.4363 15.4003L21.8004 10.9932L12.3204 5.4411C11.9759 5.23262 11.5737 5.1123 11.1433 5.1123C10.09 5.1123 9.2012 5.83639 8.94258 6.81914C8.94226 6.8201 8.94226 6.82076 8.94226 6.8216L17.4362 15.4004" fill="#253141"/>
<path d="M38.5025 7.82454H36.1922V8.40205H37.9234C37.8764 8.87333 37.6907 9.24332 37.3777 9.51206C37.0646 9.78086 36.6649 9.91581 36.1922 9.91581C35.6737 9.91581 35.2344 9.73334 34.8744 9.37087C34.5217 9.00087 34.3423 8.54334 34.3423 7.99212C34.3423 7.44093 34.5217 6.98339 34.8744 6.61343C35.2344 6.25096 35.6737 6.06968 36.1922 6.06968C36.4583 6.06968 36.712 6.11592 36.9446 6.2172C37.1772 6.3184 37.3641 6.45967 37.5101 6.64095L37.9494 6.1972C37.7501 5.96841 37.4977 5.79345 37.1846 5.66593C36.8715 5.53842 36.5449 5.47722 36.1921 5.47722C35.5005 5.47722 34.914 5.71969 34.435 6.20346C33.9561 6.68841 33.7161 7.28593 33.7161 7.99213C33.7161 8.69833 33.9561 9.29714 34.435 9.78092C34.9139 10.2646 35.5005 10.5072 36.1921 10.5072C36.9185 10.5072 37.4977 10.2721 37.9431 9.7946C38.3354 9.39717 38.5359 8.85968 38.5359 8.18719C38.5359 8.07343 38.5222 7.95216 38.5024 7.82464L38.5025 7.82454ZM39.3975 5.58461V10.3996H42.1804V9.80831H40.01V8.28088H41.9677V7.70337H40.01V6.17714H42.1804V5.58459L39.3975 5.58461ZM46.0828 6.17716V5.58461H42.8073V6.17716H44.1388V10.3996H44.7513V6.17716H46.0828ZM49.0483 5.58461H48.4358V10.3996H49.0483V5.58461ZM53.0913 6.17716V5.58461H49.8158V6.17716H51.1472V10.3996H51.7597V6.17716H53.0913ZM59.2723 6.21092C58.7996 5.71965 58.2205 5.47717 57.5287 5.47717C56.8358 5.47717 56.2567 5.71965 55.7839 6.20342C55.3112 6.68093 55.0786 7.27964 55.0786 7.99209C55.0786 8.70453 55.3112 9.30334 55.7839 9.78088C56.2567 10.2645 56.8358 10.5071 57.5287 10.5071C58.2142 10.5071 58.7995 10.2646 59.2723 9.78088C59.745 9.30337 59.9776 8.70459 59.9776 7.99209C59.9776 7.28588 59.745 6.68834 59.2723 6.21092ZM56.2232 6.61339C56.5759 6.25091 57.009 6.06964 57.5287 6.06964C58.0472 6.06964 58.4803 6.25092 58.8268 6.61339C59.1794 6.96962 59.3526 7.43455 59.3526 7.99208C59.3526 8.55087 59.1794 9.01454 58.8268 9.37082C58.4803 9.7333 58.0472 9.91577 57.5287 9.91577C57.009 9.91577 56.5759 9.73329 56.2232 9.37082C55.8779 9.00707 55.7047 8.55086 55.7047 7.99208C55.7047 7.43457 55.8779 6.97711 56.2232 6.61339ZM61.4328 7.40089L61.4069 6.47209H61.4328L63.8558 10.3995H64.4955V5.58456H63.883V8.402L63.9089 9.3308H63.883L61.5665 5.58456H60.8203V10.3995H61.4328V7.40089Z" fill="#253141"/>
</svg>

<svg width="109" height="32" viewBox="0 0 109 32" fill="none" xmlns="http://www.w3.org/2000/svg">
<path class="outer" d="M105.073 31.5H4.75a3.29 3.29 0 0 1-3.281-3.286V3.78A3.286 3.286 0 0 1 4.75.5h100.323c1.818 0 3.341 1.482 3.341 3.28v24.434c0 1.798-1.524 3.286-3.341 3.286Z" stroke="#000"/>
<path class="inner" d="M85.657 24h1.478V13.998h-1.478V24Zm13.31-6.399-1.693 4.336h-.05l-1.76-4.337h-1.592l2.638 6.06-1.504 3.371h1.54l4.064-9.43h-1.643Zm-8.38 5.262c-.483 0-1.159-.244-1.159-.849 0-.772.841-1.068 1.567-1.068.65 0 .956.142 1.35.335-.115.926-.904 1.582-1.758 1.582Zm.179-5.48c-1.07 0-2.178.476-2.637 1.53l1.312.554c.28-.553.802-.733 1.35-.733.764 0 1.541.462 1.554 1.286v.103a3.246 3.246 0 0 0-1.541-.386c-1.415 0-2.854.785-2.854 2.252 0 1.338 1.16 2.2 2.459 2.2.993 0 1.542-.45 1.884-.978h.052v.772h1.427v-3.835c0-1.775-1.313-2.766-3.006-2.766Zm-9.133 1.436H79.53V15.39h2.102c1.105 0 1.732.923 1.732 1.714 0 .774-.627 1.714-1.732 1.714Zm-.038-4.82h-3.541v10h1.477v-3.788h2.064c1.638 0 3.248-1.198 3.248-3.106s-1.61-3.107-3.248-3.107Zm-19.309 8.866c-1.02 0-1.875-.864-1.875-2.049 0-1.199.854-2.075 1.875-2.075 1.008 0 1.799.876 1.799 2.075 0 1.185-.791 2.05-1.799 2.05Zm1.697-4.704h-.051c-.332-.4-.97-.76-1.773-.76-1.685 0-3.229 1.495-3.229 3.415 0 1.907 1.544 3.39 3.229 3.39.803 0 1.441-.361 1.773-.774h.05v.49c0 1.302-.688 1.997-1.798 1.997-.906 0-1.467-.657-1.697-1.21l-1.288.54c.37.902 1.352 2.011 2.985 2.011 1.736 0 3.203-1.031 3.203-3.545v-6.108h-1.404v.554Zm2.425 5.838h1.479V13.998h-1.48v10.001Zm3.661-3.3c-.038-1.314 1.008-1.984 1.76-1.984.588 0 1.085.297 1.252.722L70.069 20.7Zm4.593-1.133c-.28-.76-1.135-2.165-2.883-2.165-1.736 0-3.177 1.379-3.177 3.402 0 1.907 1.429 3.402 3.342 3.402 1.544 0 2.438-.953 2.808-1.507l-1.149-.774c-.383.567-.905.941-1.659.941-.752 0-1.288-.348-1.632-1.031l4.503-1.881-.153-.387ZM38.78 18.445v1.443h3.42c-.103.812-.37 1.405-.78 1.817-.497.503-1.275 1.057-2.64 1.057-2.105 0-3.751-1.714-3.751-3.84 0-2.127 1.646-3.841 3.751-3.841 1.136 0 1.965.45 2.577 1.03l1.008-1.018c-.855-.824-1.99-1.456-3.585-1.456-2.884 0-5.308 2.372-5.308 5.285 0 2.912 2.424 5.284 5.308 5.284 1.556 0 2.73-.516 3.649-1.483.944-.953 1.238-2.294 1.238-3.376 0-.335-.026-.645-.077-.902h-4.81Zm8.774 4.42c-1.02 0-1.901-.85-1.901-2.062 0-1.224.88-2.062 1.901-2.062 1.02 0 1.901.838 1.901 2.062 0 1.212-.88 2.062-1.9 2.062Zm0-5.464c-1.863 0-3.381 1.43-3.381 3.402 0 1.96 1.518 3.402 3.381 3.402 1.863 0 3.381-1.443 3.381-3.402 0-1.972-1.518-3.402-3.38-3.402Zm7.376 5.464c-1.02 0-1.901-.85-1.901-2.062 0-1.224.88-2.062 1.9-2.062 1.022 0 1.902.838 1.902 2.062 0 1.212-.88 2.062-1.901 2.062Zm0-5.464c-1.863 0-3.38 1.43-3.38 3.402 0 1.96 1.517 3.402 3.38 3.402s3.381-1.443 3.381-3.402c0-1.972-1.518-3.402-3.381-3.402Zm-37.555-1.262-8.431 9.04.001.005a2.28 2.28 0 0 0 2.2 1.704c.42 0 .816-.115 1.155-.317l.027-.016 9.49-5.532-4.442-4.884ZM26.5 14l-.009-.006-4.097-2.4-4.616 4.15 4.632 4.679 4.076-2.376c.714-.39 1.2-1.15 1.2-2.028 0-.871-.48-1.628-1.187-2.02ZM8.349 7.421c-.05.19-.078.387-.078.592v15.974c0 .205.027.404.078.592l8.722-8.809L8.35 7.421Zm9.088 7.979 4.364-4.407-9.48-5.552a2.265 2.265 0 0 0-1.177-.329 2.283 2.283 0 0 0-2.2 1.707l-.001.003 8.494 8.578Zm21.066-7.575h-2.31v.577h1.73c-.046.471-.232.841-.545 1.11-.313.269-.713.404-1.185.404a1.79 1.79 0 0 1-1.318-.545c-.353-.37-.532-.828-.532-1.379s.179-1.009.532-1.379c.36-.362.799-.543 1.318-.543.266 0 .52.046.752.147.233.101.42.243.565.424l.44-.444a1.978 1.978 0 0 0-.765-.531 2.588 2.588 0 0 0-.992-.189 2.38 2.38 0 0 0-1.758.727c-.479.484-.719 1.082-.719 1.788s.24 1.305.72 1.789a2.38 2.38 0 0 0 1.757.726c.726 0 1.305-.235 1.75-.712.393-.398.593-.935.593-1.608 0-.114-.013-.235-.033-.362Zm.895-2.24V10.4h2.783v-.592h-2.17V8.281h1.957v-.578H40.01V6.177h2.17v-.592h-2.782Zm6.685.592v-.592h-3.275v.592h1.331V10.4h.613V6.177h1.331Zm2.966-.592h-.613V10.4h.613V5.585Zm4.043.592v-.592h-3.276v.592h1.331V10.4h.613V6.177h1.332Zm6.18.034c-.472-.491-1.051-.734-1.743-.734a2.34 2.34 0 0 0-1.745.726c-.472.478-.705 1.077-.705 1.79 0 .712.233 1.31.705 1.788a2.341 2.341 0 0 0 1.745.726 2.35 2.35 0 0 0 1.744-.726c.472-.478.705-1.076.705-1.789 0-.706-.233-1.304-.705-1.781Zm-3.048.402a1.746 1.746 0 0 1 1.305-.543c.518 0 .952.181 1.298.543.353.357.526.822.526 1.38 0 .558-.173 1.022-.526 1.378-.346.362-.78.545-1.298.545a1.75 1.75 0 0 1-1.306-.545c-.345-.364-.518-.82-.518-1.379 0-.557.173-1.015.519-1.379Zm5.21.788-.027-.929h.026l2.423 3.928h.64V5.585h-.613v2.817l.026.929h-.026l-2.316-3.746h-.746V10.4h.612v-3Z" fill="#000"/>
</svg>
